X: 184
T: Autant en emporte le vent
N: Derived from Rue3001-Autant_en_emporte_le_vent.krn
C: Pierre de la Rue
%%abc-version 2.0
%%abcx-abcm2ps-target-version 5.9.1 (29 Sep 2008)
%%abc-creator hum2abc beta
%%abcx-conversion-date 2019/02/17 08:01:17
%%abc-edited-by Jesse Rodin
%%abc-edited-by Chris Gage 06-11-2013
%%abcx-initial-encoding-date 2013/08/06/
%%humdrum-veritas 4258569400
%%humdrum-veritas-data 2277030575
%%linebreak <none>
%%barnumbers 0
L: 1/4
M: 2/1
Q: 1/2=120
%%staves [1 2 3 4]
V: 1 clef=treble
V: 2 clef=treble-8
V: 3 clef=treble-8
V: 4 clef=bass
K: F
[V:1] z8 | 
[V:2] z8 | 
[V:3] z4G4 | 
[V:4] G,4G,4 | 
[V:1] z8 | 
[V:2] z8 | 
[V:3] A3AA2B2 | 
[V:4] F,3F,F,2G,2 | 
[V:1] G4A3A | 
[V:2] d4f3f | 
[V:3] B2AGF4 | 
[V:4] G,2F,E,D,4 | 
[V:1] A2B2B2AG | 
[V:2] f2g2g2fe | 
[V:3] z8 | 
[V:4] z8 | 
[V:1] F4z4 | 
[V:2] d8 | 
[V:3] z2F2B2B2 | 
[V:4] z2F,2G,2G,2 | 
[V:1] z8 | 
[V:2] z8 | 
[V:3] A2B2c2c2 | 
[V:4] F,2G,2E,2E,2 | 
[V:1] z2F2B2B2 | 
[V:2] z2f2g2g2 | 
[V:3] d4z4 | 
[V:4] D,4z4 | 
[V:1] A2B2c2c2 | 
[V:2] f2g2e2e2 | 
[V:3] z8 | 
[V:4] z8 | 
[V:1] d4B4 | 
[V:2] d8 | 
[V:3] z8 | 
[V:4] z4G,4 | 
[V:1] B2B2A2A2 | 
[V:2] z2d2f2f2 | 
[V:3] d4d2d2 | 
[V:4] G,2G,2F,4 | 
[V:1] B2B2cBAG | 
[V:2] B2B2G2G2 | 
[V:3] d2d2c4 | 
[V:4] G,2G,2E,4 | 
[V:1] F4z2G2 | 
[V:2] A4G4 | 
[V:3] d4B4 | 
[V:4] D,4z4 | 
[V:1] A2A2B2B2 | 
[V:2] z2d2d2d2 | 
[V:3] A4z2d2 | 
[V:4] z2F,2G,2G,2 | 
[V:1] B3GA2B2 | 
[V:2] B2B2A2F2 | 
[V:3] d2d2d2d2 | 
[V:4] G,2G,2F,2D,2 | 
[V:1] cBAGFEA2- | 
[V:2] G3ABcd2- | 
[V:3] c4d4 | 
[V:4] _E,4D,4 | 
[V:1] A2G4^F2 | 
[V:2] d2c2d3c | 
[V:3] B2AGA4 | 
[V:4] _E,4D,4 | 
[V:1] G2B2c2cc | 
[V:2] BAG4^F2 | 
[V:3] G4z4 | 
[V:4] z2G,,2A,,2A,,2 | 
[V:1] B2G2A2A2 | 
[V:2] G4z4 | 
[V:3] z2B2c4 | 
[V:4] G,,2G,4F,2 | 
[V:1] G2G4^F2 | 
[V:2] z8 | 
[V:3] B2G2A4 | 
[V:4] G,2E,2D,4 | 
[V:1] G4z4 | 
[V:2] z2d2g3g | 
[V:3] G8 | 
[V:4] G,,4z4 | 
[V:1] z8 | 
[V:2] f2d2e4 | 
[V:3] z8 | 
[V:4] z2F,2G,4 | 
[V:1] z8 | 
[V:2] d2d4^c2 | 
[V:3] z8 | 
[V:4] F,2D,2E,4 | 
[V:1] z2A2A2A2 | 
[V:2] d8 | 
[V:3] z8 | 
[V:4] D,8- | 
[V:1] A2A2B2A2 | 
[V:2] z4z2d2 | 
[V:3] z8 | 
[V:4] D,8 | 
[V:1] B2AGF4 | 
[V:2] d2d2d2d2 | 
[V:3] z8 | 
[V:4] z8 | 
[V:1] z2F2G2A2 | 
[V:2] _e2d2_e2dc | 
[V:3] z8 | 
[V:4] z8 | 
[V:1] D4z2A2- | 
[V:2] B4c4 | 
[V:3] z4z2A2 | 
[V:4] z8 | 
[V:1] ABc3BAG | 
[V:2] F8 | 
[V:3] A2A2A2A2 | 
[V:4] z8 | 
[V:1] F4z2A2- | 
[V:2] z8 | 
[V:3] B2A2B2AG | 
[V:4] z2D,2D,2D,2 | 
[V:1] A2GFG2F2 | 
[V:2] z8 | 
[V:3] F4z2F2 | 
[V:4] D,2D,2_E,2D,2 | 
[V:1] c4d4 | 
[V:2] z4f4 | 
[V:3] G2A2D2B2 | 
[V:4] _E,2D,C,B,,4 | 
[V:1] c2B4A2 | 
[V:2] f2f2f2f2- | 
[V:3] c2d2c4 | 
[V:4] A,,2B,,2F,4 | 
[V:1] B4z2B2 | 
[V:2] f2d2d4 | 
[V:3] B4B4 | 
[V:4] B,,4z2G,2 | 
[V:1] B2B2A2A2 | 
[V:2] d2f3edc | 
[V:3] z2d2d2d2 | 
[V:4] G,2G,2F,2F,2 | 
[V:1] B2B2cBAG | 
[V:2] BAGFG4 | 
[V:3] d2d2c4 | 
[V:4] G,4E,4 | 
[V:1] F4z2G2 | 
[V:2] A4G4 | 
[V:3] d4B4 | 
[V:4] D,4z4 | 
[V:1] A2A2B2B2 | 
[V:2] z2d2d2d2 | 
[V:3] A4z2d2 | 
[V:4] z2F,2G,2G,2 | 
[V:1] B3GA2B2 | 
[V:2] B2B2A2F2 | 
[V:3] d2d2d2d2 | 
[V:4] G,2G,2F,2D,2 | 
[V:1] cBAGFEA2- | 
[V:2] G3ABcd2- | 
[V:3] c4d4 | 
[V:4] _E,4D,4 | 
[V:1] AGG4^F2 | 
[V:2] d2c2d4 | 
[V:3] B2G2A4 | 
[V:4] _E,4D,4 | 
[V:1] G8 |]  
[V:2] d8 |]  
[V:3] G8 |]  
[V:4] G,,8 |]  



